packages/icon/src/svg/dashboard.icon.svg

<svg role="img" aria-label="dashboard icon" viewBox="0 0 24 24" xmlns="http://www.w3.org/2000/svg"><path d="M16.5,2 L21.5,2 C21.7761424,2 22,2.22385763 22,2.5 L22,11.5 C22,11.7761424 21.7761424,12 21.5,12 L16.5,12 C16.2238576,12 16,11.7761424 16,11.5 L16,2.5 C16,2.22385763 16.2238576,2 16.5,2 Z M2.5,14 L8.5,14 C8.77614237,14 9,14.2238576 9,14.5 L9,21.5 C9,21.7761424 8.77614237,22 8.5,22 L2.5,22 C2.22385763,22 2,21.7761424 2,21.5 L2,14.5 C2,14.2238576 2.22385763,14 2.5,14 Z M11.5,14 L21.5,14 C21.7761424,14 22,14.2238576 22,14.5 L22,21.5 C22,21.7761424 21.7761424,22 21.5,22 L11.5,22 C11.2238576,22 11,21.7761424 11,21.5 L11,14.5 C11,14.2238576 11.2238576,14 11.5,14 Z M2.5,2 L13.5,2 C13.7761424,2 14,2.22385763 14,2.5 L14,11.5 C14,11.7761424 13.7761424,12 13.5,12 L2.5,12 C2.22385763,12 2,11.7761424 2,11.5 L2,2.5 C2,2.22385763 2.22385763,2 2.5,2 Z M4,10 L12,10 L12,4 L4,4 L4,10 Z M18,10 L20,10 L20,4 L18,4 L18,10 Z M4,20 L7,20 L7,16 L4,16 L4,20 Z M13,20 L20,20 L20,16 L13,16 L13,20 Z"/></svg>

<svg aria-label="dashboard icon" viewBox="0 0 24 24"><path d="M16.5 2h5a.5.5 0 01.5.5v9a.5.5 0 01-.5.5h-5a.5.5 0 01-.5-.5v-9a.5.5 0 01.5-.5zm-14 12h6a.5.5 0 01.5.5v7a.5.5 0 01-.5.5h-6a.5.5 0 01-.5-.5v-7a.5.5 0 01.5-.5zm9 0h10a.5.5 0 01.5.5v7a.5.5 0 01-.5.5h-10a.5.5 0 01-.5-.5v-7a.5.5 0 01.5-.5zm-9-12h11a.5.5 0 01.5.5v9a.5.5 0 01-.5.5h-11a.5.5 0 01-.5-.5v-9a.5.5 0 01.5-.5zM4 10h8V4H4v6zm14 0h2V4h-2v6zM4 20h3v-4H4v4zm9 0h7v-4h-7v4z"/></svg>
